X: 43140
T: Winnie Hayes'
R: jig
M: 6/8
K: Edorian
|BAF E3|FED E2A|BAF E2G|FED FAd|
BAE EBE|FED E2e|edB ABd|edB AFE:|:
Bcd e3|fed e2d|B2e eBe|f3 def|
g3 faf|edB e2e|edB ABd|edB AGE:|

